X:1
T:raz 1:3
C:Beethoven
%%score ( 1 2 3 4 )
L:1/8
Q:1/8=44
M:2/4
K:C
V:1 treble-8 nm="Classical Guitar" snm="Guit."
V:2 treble-8 
V:3 treble-8 
V:4 treble-8 
V:1
 z4 | %1
 [Ae]"^Beethoven Rasumofsky Quartet #I:iii Adagio molto e mesto              arr. solo guitar Dempsey"g/>f/ [AB]^G | %2
 A[^Ge]/>B/ [Bd]c | e7/4a/4 a[e^g]/[ea]/ | [Beb]/[Bde]/[ce]/[c^d]/ [Acd][^GBe] | %5
 [=GBf]d/>g/ [Gcg]>[Ge] | g/f/d/>g/ g2 | [e^g]2 [ea]7/4[Ac]/4 | [Adf][^GBe] e2- | e2 d/!4!c'b/- | %10
 [cb]/a{/e}^g/- g/g/{/=f^g}b/a/ | z [ea]/!4!e'/ [fe']/d'[ec'-]/ | [dc']/[db]/[cb]/[ca]/ [ca]^g | %13
 [Bdg]2 [ceg]{/ag^fg}c'/>g/ | [Bdg]2 g3/2=f/4e/4 | e2 ea | df A2 | [Ac][GB] [EAg][E^A^f] | %18
 [^DB^f]{/gfe}[df]/4[fa]/4[eg]/4[df]/4 [E,eg]{/agf}[eg]/4[gb]/4[fa]/4[eg]/4 | %19
 [B,^d^f][^Fd]/4[B,Ac]/4[^CGB]/4[^F,^DA]/4 [E,G]{/FE=D}[EG]/4[E,GB]/4[G,FA]/4[A,EG]/4 | %20
 B/4!0!B/4B,/4!0!B/4^D/4B/4^F/4B/4 ^A/4B/4^d/4B/4^f/4B/4a/4B/4 | %21
 g/4B/4e/4B/4^d/4B/4e/4B/4 d/4B/4e/4B/4^f/4B/4g/4B/4 | %22
 !1!a/4B/4g/4B/4^f/4B/4e/4B/4 ^d/4B/4f/4B/4c/4B/4d/4B/4 | eg b>e | ^d^f b>^d | eg b>d | ce g>B | %27
 Ac/ z/ e>G | !2!!3!!4![=c_be'][^ce]3/2 z/ ^a/e'/ | !1!!3!!4![^da^f'][c^fa]3/2 z/ d/a/ | %30
 [DBa]/[Bd^g]/4 z/4 [Ea]/[E^c=g]/4 z/4 [Ag]/[A=c^f]/4 z/4 [Gf]/[GBe]/4 z/4 | %31
 [EBe]/4[^FA^d]/4 z/4 [Fcd]/4[Fcd]/4[GBe]/4 z/4 [^DF]/4 [DF]/4[EG]/4[EG]/4[=D=F^G]/4[DFG]/4[CEA]/4[CEA]/4[^G,DEB]/4 | %32
 [^G,DB]/4[A,Ec]/4[A,Ec]/4[^F,B,^d]/4[F,B,d]/4[=G,Be]/4[G,Be]/4[^DA^f]/4 [DAf]/4[EBg]/4[EBg]/4[E=d^g]/4[Edg]/4[Cea]/4[B,^Gb]/4[A,Ac']/4 | %33
"^CVI" [E^cg^c'] z !4![Ge^a] z | [EGB]{/bd'}c'/4>b/4b/{/bd'} c'/4>b/4b/{/bd'}c'/4>b/4b/ | %35
 !arpeggio![Adb][^Fa] [EBg][A,^d^f] | %36
 !arpeggio![Ge]/ z/4 b/4 z/4 b/8d'/8c'/4b/4 z/4 b/8d'/8c'/4b/4 z/4 b/8d'/8c'/4b/4 | %37
 [Adb][^Fa] [EBg][A,^d^f] | [Ee][eb] [^F^db][B,^f^d'] | !arpeggio![Ege']>[Geb] [^F^db][B,B^f^d'] | %40
 [Bee']_B/4e/4g/4^c'/4 G/4^c/4e/4_b/4C/4G/4e/4b/4 | c'3/2g/4>f/4 f/g/4>f/4f/g/4>f/4 |: %42
"^CV......................................................................" !2!f2- f/a/f/a/ | %43
 !4!c'2- c'/_b/g/a/ | f2- f/d/e/>f/ | %45
 (6:4:7f3/4c3/4c/c/8e/8d/c/4 (6:4:10c/c/8e/8d/c/4c/c/8e/8d/c/4 | c a2 a/4{/_bag}a/4c'/4b/4 | %47
 ag g[g_b]/4{/c'ba}[db]/4[gd']/4[dc']/4 | _ba a[ac']/4{/d'c'=b}[ec']/4[ae']/4[ed']/4 | c'b c'^d' | %50
 e'>[c^d'] e'^f' | x4 | (3e'/4b/4e'/4 z/ (3d'/4b/4d'/4 z/ (3b/4^g/4b/4 z/ (3g/4!open!e/4g/4 z/ | %53
 (3B/4d/4B/4(3f/4d/4f/4(3B/4d/4B/4(3f/4d/4f/4 (3B/4d/4B/4(3f/4d/4f/4(3d/4e/4^d/4(3e/4d/4e/4 | %54
 e[cg]/>f/ [AB][D^G] | A{/BA^GA}e/>B/ dc | eA/4c/4e/4a/4 a^g/a/ | [cb]/[Ae]/[ce]/[A^d]/ de | %58
 fd/>g/ ge | [Bg]/4[Af]/4[Be]/4[Ad]/4[B^c]/4d/4[Ba]/4[Ag]/4 g>g | %60
 ^g>"^Natural harmonics if possible"g [aa]7/4A/4 |1 fe A[dd'] || [_Bed'][cc'] [cf]2 :|2 %63
 fe [EA]2- || [EA]4 |] %65
V:2
 z2 E2- | E2 E2- | EE A,A- | [AB][ce] fB/A/ | ^G/E/A/A/ E,2 | DF E>C | [DGB]F [Ec]>[Ce] | %7
 [DB]2 [Ac]7/4F/4 | DE [E^GB]/[DG]/[Ac]/[EGd]/ | [EAc]G/>F/ !1!!2!!0![A,EB][^G,d] | %10
 [A,E][Ed]/>B,/ [De]C | [EA]c/!3!A/ [AB]^G/A/ | !0![^GB]/E/[EA]/^D/ D[EB] | F[DF]/>G/ G>[EG] | %14
 F/F/[DG]/>[FG]/ [EGc][Ec] | [^GBd]2 [Ac]7/4[A,FB]/4 | [B,FB][E^G] [A,C]F,/E,/ | ^DE C^C | B,4 | %19
 B, B2 B, | !1![B,^F]/ z/ z z2 | EG B,>E | !2!^D^F B,>A | E,4 | B,4 | G,2 D>^F | A,C B,>D | %27
 F,A, G,>E, | !1!^F^F,/4^A,/4^C/4E/4 F/4^A/4^c/4e/4f/^f/ | %29
 !2!B-B/4^D/4^F/4A/4 B/4^d/4^f/4a/4^A/B/ | z/4 E3/4 z/4 A,3/4 z/4 ^D3/4 z/4 E3/4 | x4 | x4 | %33
 ^A, z !1!C z | B,[eg] [A^f][Bg] | x4 | E,G [A^f][Bg] | x4 | x4 | x4 | x4 | A3 _B |: %42
 (6:4:6A/4c/4A/4c/4A/4c/4(6:4:6A/4c/4A/4c/4A/4c/4 (6:4:6A/4c/4A/4c/4A/4c/4(6:4:6A/4c/4A/4c/4A/4c/4 | %43
 (6:4:6G/4c/4G/4c/4G/4c/4(6:4:6G/4c/4G/4c/4G/4c/4 (6:4:6E/4!0!G/4E/4G/4E/4G/4(6:4:6E/4G/4E/4G/4E/4G/4 | %44
 (6:4:6A/4F/4A/4F/4A/4F/4(6:4:6A/4F/4A/4F/4A/4F/4 (6:4:6G/4F/4G/4F/4G/4F/4(6:4:6G/4F/4G/4F/4G/4F/4 | %45
 (6:4:6A/4F/4A/4F/4A/4F/4(6:4:6A/4F/4A/4F/4A/4F/4 (6:4:6E/4_B/4E/4B/4E/4B/4(6:4:6E/4B/4E/4B/4E/4G/4 | %46
 (6:4:6F/4C/4F/4C/4F/4C/4(6:4:6f/4c/4f/4c/4f/4c/4 (6:4:6f/4c/4f/4c/4f/4c/4f | %47
 (6:4:6e/4c/4e/4c/4e/4c/4(6:4:6e/4c/4e/4c/4e/4c/4 (6:4:6!1!d/4!4!c/4!1!d/4_B/4d/4c/4 x | %48
 (6:4:6f/4d/4f/4d/4f/4d/4(6:4:6f/4d/4f/4d/4f/4d/4 (6:4:6e/4A/4e/4c/4e/4A/4 x | %49
 (6:4:6A/4e/4A/4e/4A/4e/4(6:4:6^G/4e/4G/4e/4G/4e/4 (6:4:6A/4e/4A/4e/4A/4e/4(6:4:6c/4a/4c/4a/4c/4a/4 | %50
 (6:4:6!1!^g/4!1!B/4g/4B/4g/4B/4(3g/4B/4g/4(3c/4a/4c/4 (6:4:6g/4B/4g/4B/4g/4B/4(6:4:6^d/4A/4d/4A/4d/4A/4 | %51
 x4 | z/ (3d/4B/4d/4 z/ (3d/4B/4d/4 z/ (3d/4B/4d/4 z/ (3d/4B/4d/4 | %53
 E/E/E/E/ E (6:4:6z/4 ^G/4B/4G/4B/4G/4 | %54
 (6:4:6c/4A/4c/4A/4c/4A/4(6:4:6A/4E/4A/4E/4A/4E/4 (6:4:6E,/4D/4E/4D/4E/4D/4(6:4:6D/4B,/4E/4B,/4E/4B,/4 | %55
 (6:4:6E/4C/4E/4C/4E/4C/4(6:4:5[B,^G]/4E/4B,/4[E,E]/4B,/ (6:4:6B,/4E/4B,/4E/4B,/4E,/4(6:4:6A,/4E/4A,/4E/4A,/4E,/4 | %56
 (6:4:6c/4E/4c/4E/4c/4E/4C/E/ (6:4:6d/4E/4d/4E/4d/4E/4d/e/ | E/C/A/c/ E, z | DF E>C | x4 | x4 |1 %61
 x4 || x4 :|2 x4 || A,4 |] %65
V:3
 x4 | x4 | x4 | x4 | x4 | x4 | x4 | x4 | x4 | x4 | x4 | x4 | x4 | x4 | x4 | x4 | x4 | x4 | x4 | %19
 x4 | x4 | x4 | x4 | z/4 B/4E/4B/4^D/4B/4E/4B/4 ^D/4B/4E/4B/4[^FA]/4B/4B/4B/4 | %24
 A/4B/4[Bc]/4B/4[^FA]/4B/4[EG]/4B/4 [F^d]/4B/4[FA]/4B/4[B,^D]/4B/4[A,F]/4B/4 | %25
 z/4 B/4G/4B/4B/4G/4B/4G/4 z/4 !0!B/4=d/4B/4^F/4B/B/4 | %26
 z/4 A/4E/4A/4A/4c/4A/4c/4 z/4 G/4B/4G/4D/4G/4B/4G/4 | %27
 z/4 C/4A,/4C/4F/4A/4C/4B/4 z/4 B,/4E/4B,/4E/4B,/4G/4 z/4 | x4 | x4 | x4 | x4 | x4 | x4 | x4 | x4 | %36
 x4 | x4 | x4 | x4 | x4 | x4 |: x4 | x4 | x4 | x4 | x4 | x4 | x4 | x4 | x4 | x4 | x4 | x4 | x4 | %55
 x4 | x4 | x4 | x4 | x4 | x4 |1 x4 || x4 :|2 x4 || x4 |] %65
V:4
 x4 | x4 | x4 | x4 | x4 | x4 | x4 | x4 | x4 | x4 | x4 | x4 | x4 | x4 | x4 | x4 | x4 | x4 | x4 | %19
 x4 | x4 | x4 | x4 | x4 | x4 | x4 | x4 | x4 | x4 | x4 | x4 | x4 | x4 | x4 | x4 | %35
 A{/Bd}c/4>B/4B/{/Bd} c/4>B/4B/c/4>B/4B/ | x4 | A,{/Bd}c/4>B/4B/{/Bd} c/4>B/4B/c/4>B/4B/ | %38
 E/4B/4G/4B/4E/4!0!B/4G/4!0!B/4 ^F/4B/4F/4B/4B,/4!0!B/4^f/4!0!B/4 | %39
 B/4G/4B/4G/4E/4B/4G/4B/4 ^F/4B/4F/4B/4B,/4B/4^f/4B/4 | x4 | %41
 f/4E/4F/4A/4c/4f/8a/8a/4c/4 c/4f/8a/8A/4c/4d/4f/8a/8_B/4d/4 |: F,4 | E2 C2 | D2 _B,2 | C2 C2 | %46
 F,2 F/A/f/A/ | C2 !1!G,/_B/!0!G/B/ | D2 A,/c/A,/c/ | E2 CA, | E,>A, E,B | x4 | E,4 | x4 | E,4 | %55
 x2 A2 | [A,E]>C B>A | x2 (6:4:6c/4A/4c/4A/4c/4A/4(6:4:6^G/4B/4G/4B/4G/4B/4 | %58
 (6:4:6B/4G/4B/4G/4B/4G/4(6:4:5B/4G/4B/4G/4B/ (6:4:6c/4G/4c/4G/4c/4G/4(6:4:6c/4G/4c/4G/4c/4G/4 | %59
 D/G,/F/D/ (6:4:6[EG]/4=c/4G/4c/4G/4c/4(6:4:6[EG]/4c/4G/4c/4G/4c/4 | %60
 (6:4:6[B,d]/4E/4d/4D/4d/4E/4(6:4:6d/4E/4d/4E/4d/4E/4 (6:4:6[Cc]/4e/4c/4e/4c/4e/4c/4[A,e]/4[B,c]/4C/4 |1 %61
 (6:4:6[DB]/4A/4B/4A/4B/4A/4(6:4:6[EB]/4^G/4B/4G/4B/4G/4 F, z || E2 F,2 :|2 %63
 (6:4:6[DB]/4A/4B/4A/4B/4A/4(6:4:6[EB]/4^G/4B/4G/4B/4G/4 A,2- || x4 |] %65

